!!!COM: Palestrina, Giovanni Perluigi da
!!!OPR: Dilexi quoniam
!!!OTL: Sanctus
**kern	**kern	**kern	**kern	**kern
*Ibass	*Itenor	*Itenor	*Icalto	*Icant
!Bassus	!Tenor 2	!Tenor 1	!Altus	!Cantus
*clefF4	*clefGv2	*clefGv2	*clefG2	*clefG2
*k[]	*k[]	*k[]	*k[]	*k[]
*C:ion	*C:ion	*C:ion	*C:ion	*C:ion
*M4/2	*M4/2	*M4/2	*M4/2	*M4/2
=1	=1	=1	=1	=1
0r	1G	0r	0r	0r
.	1G	.	.	.
=2	=2	=2	=2	=2
0r	1.c	0r	0r	0r
.	4B	.	.	.
.	4A	.	.	.
=3	=3	=3	=3	=3
0r	2B	0r	0r	1g
.	2.c	.	.	.
.	.	.	.	1g
.	4B	.	.	.
.	4A	.	.	.
.	4G	.	.	.
=4	=4	=4	=4	=4
0r	1A	0r	0r	1.cc
.	2G	.	.	.
.	[2g	.	.	4b
.	.	.	.	4a
=5	=5	=5	=5	=5
0r	2g]	0r	1g	2b
.	2c	.	.	2.cc
.	1e	.	1g	.
.	.	.	.	4b
.	.	.	.	4a
.	.	.	.	4g
=6	=6	=6	=6	=6
0r	1f	0r	1.cc	1a
.	2e	.	.	4g
.	.	.	.	4a
.	[2g	.	4b	4b
.	.	.	4a	4cc
=7	=7	=7	=7	=7
0r	4g]	0r	2b	2dd
.	4f	.	.	.
.	4e	.	2.cc	2.ee
.	4d	.	.	.
.	2c	.	.	.
.	.	.	4b	4ff
.	2e	.	4a	[2gg
.	.	.	4g	.
=8	=8	=8	=8	=8
0r	1d	1r	1a	2gg]
.	.	.	.	2ff#
.	2.G	1d	1b	2gg
.	.	.	.	[2g
.	4A	.	.	.
=9	=9	=9	=9	=9
1G	4B	1d	1g	4g]
.	4c	.	.	4a
.	2d	.	.	2.b
1G	2.B	[1g	1r	.
.	.	.	.	4cc
.	.	.	.	4dd
.	4G	.	.	4b
=10	=10	=10	=10	=10
1.c	1.A	2g]	0r	1cc
.	.	4f#	.	.
.	.	4e	.	.
.	.	2f#	.	2a
4B	2G	[2g	.	[2dd
4A	.	.	.	.
=11	=11	=11	=11	=11
2G	2G	4g]	1g	2dd]
.	.	4f	.	.
2.c	4c	4e	.	2cc
.	4d	4d	.	.
.	4e	4c	1g	1cc
4B	4f	4d	.	.
4A	[2g	[2e	.	.
4G	.	.	.	.
=12	=12	=12	=12	=12
1A	2g]	2e]	1.cc	0r
.	2f#	4d	.	.
.	.	4c	.	.
[1G	[1g	[1d	.	.
.	.	.	4b	.
.	.	.	4a	.
=13	=13	=13	=13	=13
2G]	1g]	2d]	2b	1r
2E	.	2e	2.cc	.
[1F	[1c	2.A	.	1cc
.	.	.	4b	.
.	.	.	4a	.
.	.	4B	4g	.
=14	=14	=14	=14	=14
2F]	1c]	4c	2a	1cc
.	.	4A	.	.
2E	.	1c	2g	.
1D	1d	.	1f	[1ff
.	.	2B	.	.
=15	=15	=15	=15	=15
2C	1g	1c	2r	2ff]
2.c	.	.	2g	4ee
.	.	.	.	4dd
.	2g	2.c	2c	2ee
4B	.	.	.	.
4A	[2a	.	[2cc	[2ff
4G	.	4B	.	.
=16	=16	=16	=16	=16
1.F	4a]	0A	4cc]	4ff]
.	4g	.	4b	4ee
.	4f	.	4a	4dd
.	4e	.	4g	4cc
.	4f	.	2a	2dd
.	4e	.	.	.
2A	4d	.	2f	[2cc
.	4c	.	.	.
=17	=17	=17	=17	=17
0G	0d	1B	0g	2cc]
.	.	.	.	4b
.	.	.	.	4a
.	.	1G	.	1b
=18	=18	=18	=18	=18
0C	1c	2r	2r	2cc
.	.	2.c	2.g	2.ee
.	1r	.	.	.
.	.	4c	4g	4ee
.	.	2c	2g	2ee
=19	=19	=19	=19	=19
0r	0r	2f	2a	2dd
.	.	2e	2g	2cc
.	.	2f	2a	2dd
.	.	[2g	2b	[2ee
=20	=20	=20	=20	=20
0r	1r	4g]	4e	4ee]
.	.	4f	4f	4dd
.	.	2e	4g	1cc
.	.	.	4e	.
.	2r	1d	2f	.
.	[2G	.	[2g	4b
.	.	.	.	4a
=21	=21	=21	=21	=21
2r	4G]	2r	2g]	2b
.	4G	.	.	.
2.C	2G	2.e	2g	2cc
.	2.c	.	1g	1cc
4C	.	4e	.	.
2C	.	2e	.	.
.	4B	.	.	.
=22	=22	=22	=22	=22
2F	2A	2d	1r	1r
2E	2G	2c	.	.
2F	2A	2d	2r	2r
[2G	2B	[2e	[2g	2g
=23	=23	=23	=23	=23
4G]	1G	4e]	2g]	2b
4F	.	4d	.	.
2E	.	1c	2g	2cc
1D	2r	.	1f	1dd
.	2d	2B	.	.
=24	=24	=24	=24	=24
2C	2g	1c	2e	1ee
1c	2g	.	2c	.
.	2.g	1G	2d	1dd
2B	.	.	2d	.
.	4f	.	.	.
=25	=25	=25	=25	=25
2.c	2e	2r	1g	1cc
.	2c	2.g	.	.
8B	.	.	.	.
8A	.	.	.	.
[1G	1d	.	2r	2b
.	.	4g	.	.
.	.	2g	[2b	[2g
=26	=26	=26	=26	=26
1G]	0r	2d	4b]	4g]
.	.	.	4b	4g
.	.	2e	2b	2g
1r	.	2f	2a	2cc
.	.	2g	2g	2b
=27	=27	=27	=27	=27
0r	0r	4f	2a	2cc
.	.	4e	.	.
.	.	4d	2.b	2.dd
.	.	4c	.	.
.	.	2.B	.	.
.	.	.	4a	4cc
.	.	.	[2g	2b
.	.	4c	.	.
=28	=28	=28	=28	=28
1r	1r	1d	2g]	1a
.	.	.	2f#	.
1c	2r	1e	2g	1g
.	2e	.	2g	.
=29	=29	=29	=29	=29
2c	2e	2r	2g	0r
2c	2e	2c	2g	.
1A	1f#	2c	1a	.
.	.	2c	.	.
=30	=30	=30	=30	=30
2.G	2g	1d	1b	0r
.	1G	.	.	.
4F	.	.	.	.
2E	.	2e	2cc	.
2F	[2c	2c	[2a	.
=31	=31	=31	=31	=31
1D	2c]	1.f	2a]	1r
.	2B	.	4g	.
.	.	.	4f	.
[1C	1c	.	2g	2r
.	.	4e	2f	2gg
.	.	4d	.	.
=32	=32	=32	=32	=32
1C]	2r	2.e	2r	2gg
.	2c	.	2cc	2gg
.	.	4f	.	.
1r	2c	4g	2cc	1ee
.	.	4a	.	.
.	2c	[2g	2cc	.
=33	=33	=33	=33	=33
0r	1d	2g]	1a	2.dd
.	.	2f#	.	.
.	.	.	.	4cc
.	2e	4g	2.g	2b
.	.	4f	.	.
.	[2c	4e	.	2cc
.	.	4d	4f	.
=34	=34	=34	=34	=34
2r	2c]	1c	2e	1a
1c	2F	.	2f	.
.	1G	2r	1d	[1g
2B	.	[2g	.	.
=35	=35	=35	=35	=35
2.c	2r	2g]	1c	1g]
.	1c	2e	.	.
4B	.	.	.	.
2A	.	2f	1r	1r
2G	2B	[2e	.	.
=36	=36	=36	=36	=36
1F	2c	2e]	2r	1r
.	2A	2d	1a	.
1E	1B	1e	.	2r
.	.	.	2g#	[2ee
=37	=37	=37	=37	=37
2r	1A	2r	2.a	2ee]
2F	.	1a	.	2cc
.	.	.	4g	.
2D	1r	.	2f	2dd
2E	.	2g	2e	[2cc
=38	=38	=38	=38	=38
2F	1r	2a	1d	2cc]
2G	.	2g	.	2b
2.A	2r	2e	[1c	[1cc
.	[2f	[2a	.	.
4B	.	.	.	.
=39	=39	=39	=39	=39
1c	2f]	2a]	0c]	0cc]
.	2e	2g	.	.
1F	2.f	2.a	.	.
.	4e	4g	.	.
=40	=40	=40	=40	=40
0r	2d	2f	2r	1r
.	2c	2e	1a	.
.	1B	1d	.	2r
.	.	.	2g#	[2dd
=41	=41	=41	=41	=41
1r	[0A	1e	2.a	2dd]
.	.	.	.	2cc#
.	.	.	4g	.
[1D	.	2.a	4f	[1dd
.	.	.	4e	.
.	.	.	2d	.
.	.	4g	.	.
=42	=42	=42	=42	=42
2D]	1A]	2f	1a	2dd]
2C#	.	2e	.	2ee
4D	2r	1d	1a	1ff
4E	.	.	.	.
4F	2a	.	.	.
4G	.	.	.	.
=43	=43	=43	=43	=43
4A	2a	1c	2r	1ee
4B	.	.	.	.
1c	2e	.	2g	.
.	1g	1G	2g	1dd
2B	.	.	2d	.
=44	=44	=44	=44	=44
2c	1g	2r	1e	0cc
2c	.	2e	.	.
2c	1r	2e	1g	.
2c	.	2e	.	.
=45	=45	=45	=45	=45
2A	1r	2f	2r	1r
2B	.	2d	2g	.
1c	2r	2.e	2g	2r
.	2c	.	2g	2ee
.	.	4f	.	.
=46	=46	=46	=46	=46
1C	2c	2g	1cc	2ee
.	2c	2.a	.	2ee
1r	2d	.	2a	2ff
.	.	4f	.	.
.	2B	[2g	2b	2dd
=47	=47	=47	=47	=47
2r	1c	4g]	2g	1ee
.	.	4f	.	.
2E	.	4e	2g	.
.	.	4d	.	.
2E	1B	2.e	2g	1ee
2E	.	.	2g	.
.	.	4d	.	.
=48	=48	=48	=48	=48
2F	1r	2c	2a	0r
2D	.	2d	2f	.
1E	2r	2B	1g	.
.	2e	2c	.	.
=49	=49	=49	=49	=49
2E	2e	1B	2.g	2r
2G	2d	.	.	2b
.	.	.	4f	.
2G	2.g	1r	2e	2b
2G	.	.	2d	2b
.	4f	.	.	.
=50	=50	=50	=50	=50
2A	2e	1r	1c	2cc
2F	2f	.	.	2a
1G	1d	2r	2r	2.b
.	.	2d	2B	.
.	.	.	.	4cc
=51	=51	=51	=51	=51
1G	2G	2d	2B	4dd
.	.	.	.	4ee
.	1g	2d	2B	2.dd
2C	.	2e	2c	.
.	.	.	.	4cc
2C	2e	2c	2g	[2cc
=52	=52	=52	=52	=52
0G	4d	0d	0g	2cc]
.	4G	.	.	.
.	2.g	.	.	4b
.	.	.	.	4a
.	.	.	.	1b
.	4f	.	.	.
.	2d	.	.	.
=53	=53	=53	=53	=53
[0C	[0e	[0c	[0g	[0cc
=54	=54	=54	=54	=54
0C]	0e]	0c]	0g]	0cc]
==	==	==	==	==
*-	*-	*-	*-	*-
!!!CDT: 1525/^1526/-1594/2/2
!!!OCY: Italia
!!!AGN: Mass (Parody)
!!!AST: renaissance, vocal
!!!ASW: Motet (Maffoni)
!!!PWK: Masses, Book 6
!!!RNB: Cadence finals: G,A
!!!YOR: Le Opere Complete, v. 21, p. 105
!!!YOO: Rome, Italy: Fratelli Scalera
!!!END: 1992//
!!!EED: John Miller
!!!YEC: Copyright 2000, John Miller
!!!YEN: United States of America
!!!YEM: Rights to all derivative electronic formats reserved.
!!!YEM: Refer to licensing agreement for further details.
!!!YEM: This file must be accompanied by the licensing agreement.
!!!YEM: A copy of the licensing agreement may be found at http://www.music-cog.ohio-state.edu/HumdrumDatabases/Palestrina/license.txt
!!!EMD: converted to Humdrum by Bret Aarden
